images/A_MGFjZjlkZDY2YjhlM2JmOSK4_vLorih8sPYXKy_36TMPa5bnpwuYzqOSCyyVZhoSeSd3NbRImVeCFhEvc5YbrMhrH8jZis5rYga7zu494w2cwRu7r3GqQqN-YYWiBs11.svg

<svg width="93" height="32" xmlns="http://www.w3.org/2000/svg"><g fill="none" fill-rule="evenodd"><path d="M0 0h93v32H0z"/><path d="M7.9 8.3c1.1.4 1.6.3 1.6-.3h.4l.3 4.5h-.3c-.2-1.1-.6-2.1-1.3-2.9a3.4 3.4 0 00-3-1.3c-.8-.1-1.5.2-2.1.7-.3.3-.6.7-.7 1.1-.1.4-.1.9 0 1.4.1.4.3.8.6 1.1.8.6 1.8 1.1 2.8 1.4 1 .3 2 .8 2.9 1.3.7.4 1.3 1 1.8 1.6.4.8.6 1.7.5 2.5 0 1.4-.6 2.7-1.7 3.6-1.2 1-2.7 1.5-4.3 1.3-1.1-.1-2.1-.4-3.1-1-.3-.2-.6-.3-1-.5-.2-.1-.5 0-.7.2-.2.3-.4.6-.3 1H0v-4.8h.4c.2 1.2.8 2.3 1.6 3.1.9.9 2.1 1.4 3.4 1.4.9.1 1.9-.2 2.7-.7.4-.3.7-.7.9-1.2.2-.5.2-1 .2-1.5s-.2-.9-.5-1.3c-.4-.4-.8-.7-1.3-1-.6-.3-1.3-.7-2-.9-.7-.3-1.3-.5-1.7-.7C1.5 15.3.3 13.8.3 12.1c0-1.2.4-2.3 1.3-3.1C2.7 8.1 4 7.7 5.4 7.7c.9 0 1.7.2 2.5.6zM30.4 7.9l.2 3.8-.4.1c-.2-2.3-1.4-3.4-3.8-3.4h-4.1v6.7h2.1c1.2.1 2.2-.7 2.3-1.9v-.5h.4v5.4h-.4c0-1.6-.8-2.5-2.4-2.5h-2v5.3c0 1.8 1.2 2.7 3.6 2.7 3.4 0 5.2-1.4 5.3-4.2h.4l-.2 4.6h-14v-.4c1 .1 1.9-.6 2-1.6V10.4c.2-1-.5-1.9-1.5-2h-.6v-.5h13.1zM43.2 7.9c.1.4.3.8.6 1.1 1.5 2.2 3.9 5.6 7.4 10.1v-8.7c.1-1-.5-1.9-1.5-2h-.5v-.5h4.5v.5c-1-.1-1.9.5-2 1.5v14.2h-.9L40.1 9.7v11.9c-.2 1 .5 1.9 1.5 2.1h.5v.4h-4.5v-.4c1 .1 1.9-.6 2-1.6V10.4c.1-1-.5-1.9-1.5-2h-.5v-.5h5.6zM67.8 8.3c1 .5 1.5.4 1.6-.3h.4l.3 4.5h-.4c-.2-1.1-.6-2.1-1.3-2.9a3.4 3.4 0 00-3-1.3c-.8 0-1.5.2-2.1.7-.3.3-.6.7-.7 1.1-.1.4-.1.9 0 1.4.1.4.3.8.6 1.1.8.6 1.7 1.1 2.7 1.4 1 .3 2 .8 3 1.3.7.4 1.3 1 1.8 1.6.4.8.6 1.7.5 2.5 0 1.4-.6 2.7-1.6 3.6-1.2 1-2.7 1.5-4.3 1.3-1.1-.1-2.1-.4-3.1-1-.3-.2-.6-.3-1-.5-.2-.1-.5 0-.7.2-.2.3-.4.6-.3 1h-.4v-4.8h.4c.2 1.2.8 2.3 1.6 3.1.9.9 2.1 1.4 3.4 1.4.9.1 1.9-.2 2.7-.7.4-.3.7-.7.9-1.2.2-.5.2-1 .2-1.5s-.2-.9-.5-1.3c-.4-.4-.8-.7-1.3-1-.6-.3-1.3-.7-2-.9-.8-.3-1.4-.6-1.7-.7-2.2-1.1-3.4-2.6-3.4-4.3 0-1.2.4-2.3 1.3-3.1 1.1-.9 2.4-1.3 3.8-1.3.9 0 1.8.2 2.6.6zM90.1 21.8L84.4 8h-.7l-5.3 13.9c-.3 1.1-1.3 1.8-2.4 1.7v.5h4v-.5c-1.3 0-1.6-.6-1.2-1.7.7-1.7 2.4-6.1 4-10.3l2.7 6.7h-3.8l-.2.5h4.2l1.3 3.1c.5 1.2.1 1.8-1.2 1.7v.5h6.6v-.5c-1 0-1.9-.7-2.3-1.8z" fill="#1D1D1B" fill-rule="nonzero"/></g></svg>

<?xml version="1.0" encoding="UTF-8"?>
<svg width="93px" height="32px" viewBox="0 0 93 32" version="1.1" xmlns="http://www.w3.org/2000/svg" xmlns:xlink="http://www.w3.org/1999/xlink">
    <title>2D88C56C-27C5-408F-B3ED-E985296C9D00</title>
    <g id="WORK-IN-PROCESS" stroke="none" stroke-width="1" fill="none" fill-rule="evenodd">
        <g id="01" transform="translate(-774.000000, -5581.000000)">
            <g id="Nuestras-marcas" transform="translate(204.000000, 5263.000000)">
                <g id="logos_ajustados_SENSA" transform="translate(570.000000, 318.000000)">
                    <rect id="Rectangle-Copy-27" x="0" y="0" width="93" height="32"></rect>
                    <path d="M7.9,8.3 C9,8.7 9.5,8.6 9.5,8 L9.9,8 L10.2,12.5 L9.9,12.5 C9.7,11.4 9.3,10.4 8.6,9.6 C7.9,8.7 6.8,8.2 5.6,8.3 C4.8,8.2 4.1,8.5 3.5,9 C3.2,9.3 2.9,9.7 2.8,10.1 C2.7,10.5 2.7,11 2.8,11.5 C2.9,11.9 3.1,12.3 3.4,12.6 C4.2,13.2 5.2,13.7 6.2,14 C7.2,14.3 8.2,14.8 9.1,15.3 C9.8,15.7 10.4,16.3 10.9,16.9 C11.3,17.7 11.5,18.6 11.4,19.4 C11.4,20.8 10.8,22.1 9.7,23 C8.5,24 7,24.5 5.4,24.3 C4.3,24.2 3.3,23.9 2.3,23.3 C2,23.1 1.7,23 1.3,22.8 C1.1,22.7 0.8,22.8 0.6,23 C0.4,23.3 0.2,23.6 0.3,24 L0,24 L0,19.2 L0.4,19.2 C0.6,20.4 1.2,21.5 2,22.3 C2.9,23.2 4.1,23.7 5.4,23.7 C6.3,23.8 7.3,23.5 8.1,23 C8.5,22.7 8.8,22.3 9,21.8 C9.2,21.3 9.2,20.8 9.2,20.3 C9.2,19.8 9,19.4 8.7,19 C8.3,18.6 7.9,18.3 7.4,18 C6.8,17.7 6.1,17.3 5.4,17.1 C4.7,16.8 4.1,16.6 3.7,16.4 C1.5,15.3 0.3,13.8 0.3,12.1 C0.3,10.9 0.7,9.8 1.6,9 C2.7,8.1 4,7.7 5.4,7.7 C6.3,7.7 7.1,7.9 7.9,8.3 Z" id="Path" fill="#1D1D1B" fill-rule="nonzero"></path>
                    <path d="M30.4,7.9 L30.6,11.7 L30.2,11.8 C30,9.5 28.8,8.4 26.4,8.4 L22.3,8.4 L22.3,15.1 L24.4,15.1 C25.6,15.2 26.6,14.4 26.7,13.2 C26.7,13 26.7,12.9 26.7,12.7 L27.1,12.7 L27.1,18.1 L26.7,18.1 C26.7,16.5 25.9,15.6 24.3,15.6 L22.3,15.6 L22.3,20.9 C22.3,22.7 23.5,23.6 25.9,23.6 C29.3,23.6 31.1,22.2 31.2,19.4 L31.6,19.4 L31.4,24 L17.4,24 L17.4,23.6 C18.4,23.7 19.3,23 19.4,22 C19.4,21.9 19.4,21.7 19.4,21.6 L19.4,10.4 C19.6,9.4 18.9,8.5 17.9,8.4 C17.7,8.4 17.5,8.4 17.3,8.4 L17.3,7.9 L30.4,7.9 Z" id="Path" fill="#1D1D1B" fill-rule="nonzero"></path>
                    <path d="M43.2,7.9 C43.3,8.3 43.5,8.7 43.8,9 C45.3,11.2 47.7,14.6 51.2,19.1 L51.2,10.4 C51.3,9.4 50.7,8.5 49.7,8.4 C49.5,8.4 49.3,8.4 49.2,8.4 L49.2,7.9 L53.7,7.9 L53.7,8.4 C52.7,8.3 51.8,8.9 51.7,9.9 C51.7,10.1 51.7,10.2 51.7,10.4 L51.7,24.1 L50.8,24.1 L40.1,9.7 L40.1,21.6 C39.9,22.6 40.6,23.5 41.6,23.7 C41.8,23.7 42,23.7 42.1,23.7 L42.1,24.1 L37.6,24.1 L37.6,23.7 C38.6,23.8 39.5,23.1 39.6,22.1 C39.6,21.9 39.6,21.8 39.6,21.6 L39.6,10.4 C39.7,9.4 39.1,8.5 38.1,8.4 C37.9,8.4 37.8,8.4 37.6,8.4 L37.6,7.9 L43.2,7.9 Z" id="Path" fill="#1D1D1B" fill-rule="nonzero"></path>
                    <path d="M67.8,8.3 C68.8,8.8 69.3,8.7 69.4,8 L69.8,8 L70.1,12.5 L69.7,12.5 C69.5,11.4 69.1,10.4 68.4,9.6 C67.7,8.7 66.6,8.2 65.4,8.3 C64.6,8.3 63.9,8.5 63.3,9 C63,9.3 62.7,9.7 62.6,10.1 C62.5,10.5 62.5,11 62.6,11.5 C62.7,11.9 62.9,12.3 63.2,12.6 C64,13.2 64.9,13.7 65.9,14 C66.9,14.3 67.9,14.8 68.9,15.3 C69.6,15.7 70.2,16.3 70.7,16.9 C71.1,17.7 71.3,18.6 71.2,19.4 C71.2,20.8 70.6,22.1 69.6,23 C68.4,24 66.9,24.5 65.3,24.3 C64.2,24.2 63.2,23.9 62.2,23.3 C61.9,23.1 61.6,23 61.2,22.8 C61,22.7 60.7,22.8 60.5,23 C60.3,23.3 60.1,23.6 60.2,24 L59.8,24 L59.8,19.2 L60.2,19.2 C60.4,20.4 61,21.5 61.8,22.3 C62.7,23.2 63.9,23.7 65.2,23.7 C66.1,23.8 67.1,23.5 67.9,23 C68.3,22.7 68.6,22.3 68.8,21.8 C69,21.3 69,20.8 69,20.3 C69,19.8 68.8,19.4 68.5,19 C68.1,18.6 67.7,18.3 67.2,18 C66.6,17.7 65.9,17.3 65.2,17.1 C64.4,16.8 63.8,16.5 63.5,16.4 C61.3,15.3 60.1,13.8 60.1,12.1 C60.1,10.9 60.5,9.8 61.4,9 C62.5,8.1 63.8,7.7 65.2,7.7 C66.1,7.7 67,7.9 67.8,8.3 Z" id="Path" fill="#1D1D1B" fill-rule="nonzero"></path>
                    <path d="M90.1,21.8 L84.4,8 L83.7,8 L78.4,21.9 C78.1,23 77.1,23.7 76,23.6 L76,24.1 L80,24.1 L80,23.6 C78.7,23.6 78.4,23 78.8,21.9 C79.5,20.2 81.2,15.8 82.8,11.6 L85.5,18.3 L81.7,18.3 L81.5,18.8 L85.7,18.8 L87,21.9 C87.5,23.1 87.1,23.7 85.8,23.6 L85.8,24.1 L92.4,24.1 L92.4,23.6 C91.4,23.6 90.5,22.9 90.1,21.8 Z" id="Path" fill="#1D1D1B" fill-rule="nonzero"></path>
                </g>
            </g>
        </g>
    </g>
</svg>
